images/merged-chat.svg

<svg width="44" height="88" viewBox="0 0 44 88" fill="none" xmlns="http://www.w3.org/2000/svg">
<g clip-path="url(#clip0_1_395)">
<path fill-rule="evenodd" clip-rule="evenodd" d="M36 3H8C5.23858 3 3 5.23858 3 8V80C3 82.7614 5.23858 85 8 85H36C38.7614 85 41 82.7614 41 80V8C41 5.23858 38.7614 3 36 3ZM8 0C3.58172 0 0 3.58172 0 8V80C0 84.4183 3.58172 88 8 88H36C40.4183 88 44 84.4183 44 80V8C44 3.58172 40.4183 0 36 0H8Z" fill="#B9B9B9"/>
<circle cx="22" cy="43" r="14" fill="#2C6BED"/>
<path fill-rule="evenodd" clip-rule="evenodd" d="M21.5 36.1667C21.75 35.8333 22.25 35.8333 22.5 36.1667L25 39.5C25.309 39.912 25.015 40.5 24.5 40.5H22.9375C22.9375 40.5115 22.9375 40.523 22.9375 40.5344C22.9376 42.3155 22.95 44.0508 23.5087 45.6282C24.0488 47.1531 25.1219 48.5801 27.3992 49.6517C27.8676 49.8722 28.0687 50.4307 27.8482 50.8992C27.6278 51.3677 27.0693 51.5687 26.6008 51.3483C24.1751 50.2068 22.778 48.647 22 46.9028C21.222 48.647 19.8249 50.2068 17.3992 51.3483C16.9307 51.5687 16.3722 51.3677 16.1517 50.8992C15.9312 50.4307 16.1323 49.8722 16.6008 49.6517C18.878 48.5801 19.9512 47.1531 20.4913 45.6282C21.0499 44.0508 21.0623 42.3155 21.0625 40.5344C21.0625 40.523 21.0625 40.5115 21.0625 40.5H19.5C18.9849 40.5 18.691 39.912 19 39.5L21.5 36.1667Z" fill="white"/>
</g>
<defs>
<clipPath id="clip0_1_395">
<rect width="44" height="88" fill="white"/>
</clipPath>
</defs>
</svg>

<svg xmlns="http://www.w3.org/2000/svg" width="44" height="88" fill="none"><g clip-path="url(#a)"><path fill="#B9B9B9" fill-rule="evenodd" d="M36 3H8a5 5 0 0 0-5 5v72a5 5 0 0 0 5 5h28a5 5 0 0 0 5-5V8a5 5 0 0 0-5-5M8 0a8 8 0 0 0-8 8v72a8 8 0 0 0 8 8h28a8 8 0 0 0 8-8V8a8 8 0 0 0-8-8z" clip-rule="evenodd"/><circle cx="22" cy="43" r="14" fill="#2C6BED"/><path fill="#fff" fill-rule="evenodd" d="M21.5 36.167a.625.625 0 0 1 1 0L25 39.5c.309.412.015 1-.5 1h-1.562v.034c0 1.782.012 3.517.57 5.094.54 1.525 1.614 2.952 3.891 4.024a.938.938 0 0 1-.798 1.696c-2.426-1.141-3.823-2.701-4.601-4.445-.778 1.744-2.175 3.304-4.6 4.445a.938.938 0 0 1-.8-1.696c2.278-1.072 3.351-2.499 3.891-4.024.559-1.577.571-3.312.572-5.094V40.5H19.5a.625.625 0 0 1-.5-1z" clip-rule="evenodd"/></g><defs><clipPath id="a"><path fill="#fff" d="M0 0h44v88H0z"/></clipPath></defs></svg>
